img/zio-runtime-system.svg

<svg xmlns="http://www.w3.org/2000/svg" xmlns:xlink="http://www.w3.org/1999/xlink" width="427" height="157" viewBox="-0.5 -0.5 427 157" style="background-color:#fff"><defs><filter id="a"><feGaussianBlur in="SourceAlpha" stdDeviation="1.7" result="blur"/><feOffset in="blur" dx="3" dy="3" result="offsetBlur"/><feFlood flood-color="#3D4574" flood-opacity=".4" result="offsetColor"/><feComposite in="offsetColor" in2="offsetBlur" operator="in" result="offsetBlur"/><feBlend in="SourceGraphic" in2="offsetBlur"/></filter></defs><g filter="url(#a)"><path fill="none" pointer-events="all" d="M0 0h420v150H0z"/><path d="M-1-1v61q211 45 422 0V-1z" fill="none" pointer-events="all"/><path d="M300 75h33.63" fill="none" stroke="#000" stroke-miterlimit="10" pointer-events="stroke"/><path d="M338.88 75l-7 3.5 1.75-3.5-1.75-3.5z" stroke="#000" stroke-miterlimit="10" pointer-events="all"/><path d="M300 75h33.63" fill="none" stroke="#000" stroke-miterlimit="10" pointer-events="stroke"/><path d="M338.88 75l-7 3.5 1.75-3.5-1.75-3.5z" stroke="#000" stroke-miterlimit="10" pointer-events="all"/><path fill="#fff" stroke="#000" pointer-events="all" d="M140 30h160v90H140z"/><switch transform="translate(-.5 -.5)"><foreignObject style="text-align:left" pointer-events="none" width="100%" height="100%" requiredFeatures="http://www.w3.org/TR/SVG11/feature#Extensibility" overflow="visible"><div xmlns="http://www.w3.org/1999/xhtml" style="align-items:unsafe center;justify-content:unsafe center;width:158px;height:1px;padding-top:75px;margin-left:141px" display="flex"><div style="box-sizing:border-box;text-align:center" font-size="0"><div style="line-height:1.2;white-space:normal;word-wrap:normal" display="inline-block" font-size="12" font-family="Helvetica" color="#000" pointer-events="all"><font font-size="14">ZIO Runtime System</font></div></div></div></foreignObject><text x="220" y="79" font-family="Helvetica" font-size="12" text-anchor="middle">ZIO Runtime System</text></switch><path d="M100 75h33.63" fill="none" stroke="#000" stroke-miterlimit="10" pointer-events="stroke"/><path d="M138.88 75l-7 3.5 1.75-3.5-1.75-3.5z" stroke="#000" stroke-miterlimit="10" pointer-events="all"/><path fill="none" pointer-events="all" d="M0 65h100v20H0z"/><switch transform="translate(-.5 -.5)"><foreignObject style="text-align:left" pointer-events="none" width="100%" height="100%" requiredFeatures="http://www.w3.org/TR/SVG11/feature#Extensibility" overflow="visible"><div xmlns="http://www.w3.org/1999/xhtml" style="align-items:unsafe center;justify-content:unsafe center;width:98px;height:1px;padding-top:75px;margin-left:1px" display="flex"><div style="box-sizing:border-box;text-align:center" font-size="0"><div style="line-height:1.2;white-space:normal;word-wrap:normal" display="inline-block" font-size="12" font-family="Helvetica" color="#000" pointer-events="all">(R, ZIO[R, E, A])</div></div></div></foreignObject><text x="50" y="79" font-family="Helvetica" font-size="12" text-anchor="middle">(R, ZIO[R, E, A])</text></switch><path fill="none" pointer-events="all" d="M340 65h80v20h-80z"/><switch transform="translate(-.5 -.5)"><foreignObject style="text-align:left" pointer-events="none" width="100%" height="100%" requiredFeatures="http://www.w3.org/TR/SVG11/feature#Extensibility" overflow="visible"><div xmlns="http://www.w3.org/1999/xhtml" style="align-items:unsafe center;justify-content:unsafe center;width:78px;height:1px;padding-top:75px;margin-left:341px" display="flex"><div style="box-sizing:border-box;text-align:center" font-size="0"><div style="line-height:1.2;white-space:normal;word-wrap:normal" display="inline-block" font-size="12" font-family="Helvetica" color="#000" pointer-events="all">Either[E, A]</div></div></div></foreignObject><text x="380" y="79" font-family="Helvetica" font-size="12" text-anchor="middle">Either[E, A]</text></switch></g><switch><a transform="translate(0 -5)" xlink:href="https://www.diagrams.net/doc/faq/svg-export-text-problems" target="_blank"><text text-anchor="middle" font-size="10" x="50%" y="100%">Viewer does not support full SVG 1.1</text></a></switch></svg>

<?xml version="1.0" encoding="UTF-8"?>
<!DOCTYPE svg PUBLIC "-//W3C//DTD SVG 1.1//EN" "http://www.w3.org/Graphics/SVG/1.1/DTD/svg11.dtd">
<svg xmlns="http://www.w3.org/2000/svg" xmlns:xlink="http://www.w3.org/1999/xlink" version="1.1" width="427" height="157" viewBox="-0.5 -0.5 427 157" content="&lt;mxfile host=&quot;app.diagrams.net&quot; modified=&quot;2021-05-03T14:13:06.905Z&quot; agent=&quot;5.0 (X11; Linux x86_64) AppleWebKit/537.36 (KHTML, like Gecko) Chrome/87.0.4280.66 Safari/537.36&quot; etag=&quot;vldGM_k2D8y-Oc0SWhRZ&quot; version=&quot;14.6.9&quot; type=&quot;device&quot;&gt;&lt;diagram id=&quot;0ljbm5RRztwbRng5DFSr&quot; name=&quot;Page-1&quot;&gt;7VdNj9owEP01kdrDSokDAY7A0g+1Vaulq0q9ucmQGJyYOhMg/fWdxA5JgN1u1d1WWpUD2G8mY/u9mXFw/Hl6eK35NvmgIpAOc6OD4187jI3GjL4roDTAwPMNEGsRGchrgaX4ARZ0LVqICPKeIyolUWz7YKiyDELsYVxrte+7rZTsr7rlMZwBy5DLc/SLiDAx6JiNWvwNiDhpVvaCibF84+Em1qrI7HoO81f1x5hT3sSyB80THql9B/IXjj/XSqEZpYc5yIrahjbz3Ks7rMd9a8jwIQ8E5XRyu3PH6yLcvQvZap0tP1+xwITZcVlAc456t1g2DNVnhCqK6/izfSIQllseVtY9pQRhCaaSZh4NI54ntW8z+cQRQWc1wtwBoUciqnD5BjBM7CSWPM/ts4qWEFhai90laITDnef3jqxSsoJKAXVJLs0DgRXCJqo3tvN9K/ugESvpSj60ILepFh9jt3TTwDL+O+yzX7MPEaWrnSqNiYpVxuWiRWd9fVqf90ptLZlrQCxt7fECVV8zs2a10P3U0r5UoUO450RNBXMdA97nN7qslQbJUez6G3l83gf/af4LNHsXsjuQtN/ZStGJu/wH3wvVGK7ymsEpOXiD7aE10iiufr++/Ui2myJDkQKNlmWOkDaxaasmvHH+s3bW61WP0IR8t9+EjtdgpwkdG1W3CU2eqgd5k2fXg4KHVsc/LY7zm/fFjcMomFvl93BmJwvzM3WG1y/PhKFExJOERa02MFdSaUIylVXqrISUJxCXIq4u5ZDoBcJnVVoLei2aWkMqoqiW9lKF9OV+gsuZDYbndeFeqAv2ZHUxOtNnITAhroazjibPV5Lhaau6IMn4cRShafseXNs6/zX8xU8=&lt;/diagram&gt;&lt;/mxfile&gt;" style="background-color: rgb(255, 255, 255);"><defs><linearGradient x1="0%" y1="0%" x2="0%" y2="100%" id="mx-gradient-ffffff-0.9-ffffff-0.1-s-0"><stop offset="0%" style="stop-color:#ffffff;stop-opacity:0.9"/><stop offset="100%" style="stop-color:#ffffff;stop-opacity:0.1"/></linearGradient><filter id="dropShadow"><feGaussianBlur in="SourceAlpha" stdDeviation="1.7" result="blur"/><feOffset in="blur" dx="3" dy="3" result="offsetBlur"/><feFlood flood-color="#3D4574" flood-opacity="0.4" result="offsetColor"/><feComposite in="offsetColor" in2="offsetBlur" operator="in" result="offsetBlur"/><feBlend in="SourceGraphic" in2="offsetBlur"/></filter></defs><g filter="url(#dropShadow)"><rect x="0" y="0" width="420" height="150" fill-opacity="0" fill="#ffffff" stroke="#000000" stroke-opacity="0" stroke-dasharray="1 4" pointer-events="all"/><path d="M -1 -1 L -1 60 Q 210 105 421 60 L 421 -1 Z" fill-opacity="0" fill="url(#mx-gradient-ffffff-0.9-ffffff-0.1-s-0)" stroke="none" pointer-events="all"/><path d="M 300 75 L 333.63 75" fill="none" stroke="#000000" stroke-miterlimit="10" pointer-events="stroke"/><path d="M 338.88 75 L 331.88 78.5 L 333.63 75 L 331.88 71.5 Z" fill="#000000" stroke="#000000" stroke-miterlimit="10" pointer-events="all"/><path d="M 300 75 L 333.63 75" fill="none" stroke="#000000" stroke-miterlimit="10" pointer-events="stroke"/><path d="M 338.88 75 L 331.88 78.5 L 333.63 75 L 331.88 71.5 Z" fill="#000000" stroke="#000000" stroke-miterlimit="10" pointer-events="all"/><rect x="140" y="30" width="160" height="90" fill="#ffffff" stroke="#000000" pointer-events="all"/><g transform="translate(-0.5 -0.5)"><switch><foreignObject style="overflow: visible; text-align: left;" pointer-events="none" width="100%" height="100%" requiredFeatures="http://www.w3.org/TR/SVG11/feature#Extensibility"><div xmlns="http://www.w3.org/1999/xhtml" style="display: flex; align-items: unsafe center; justify-content: unsafe center; width: 158px; height: 1px; padding-top: 75px; margin-left: 141px;"><div style="box-sizing: border-box; font-size: 0; text-align: center; "><div style="display: inline-block; font-size: 12px; font-family: Helvetica; color: #000000; line-height: 1.2; pointer-events: all; white-space: normal; word-wrap: normal; "><font style="font-size: 14px">ZIO Runtime System</font></div></div></div></foreignObject><text x="220" y="79" fill="#000000" font-family="Helvetica" font-size="12px" text-anchor="middle">ZIO Runtime System</text></switch></g><path d="M 100 75 L 133.63 75" fill="none" stroke="#000000" stroke-miterlimit="10" pointer-events="stroke"/><path d="M 138.88 75 L 131.88 78.5 L 133.63 75 L 131.88 71.5 Z" fill="#000000" stroke="#000000" stroke-miterlimit="10" pointer-events="all"/><rect x="0" y="65" width="100" height="20" fill="none" stroke="none" pointer-events="all"/><g transform="translate(-0.5 -0.5)"><switch><foreignObject style="overflow: visible; text-align: left;" pointer-events="none" width="100%" height="100%" requiredFeatures="http://www.w3.org/TR/SVG11/feature#Extensibility"><div xmlns="http://www.w3.org/1999/xhtml" style="display: flex; align-items: unsafe center; justify-content: unsafe center; width: 98px; height: 1px; padding-top: 75px; margin-left: 1px;"><div style="box-sizing: border-box; font-size: 0; text-align: center; "><div style="display: inline-block; font-size: 12px; font-family: Helvetica; color: #000000; line-height: 1.2; pointer-events: all; white-space: normal; word-wrap: normal; ">(R, ZIO[R, E, A])</div></div></div></foreignObject><text x="50" y="79" fill="#000000" font-family="Helvetica" font-size="12px" text-anchor="middle">(R, ZIO[R, E, A])</text></switch></g><rect x="340" y="65" width="80" height="20" fill="none" stroke="none" pointer-events="all"/><g transform="translate(-0.5 -0.5)"><switch><foreignObject style="overflow: visible; text-align: left;" pointer-events="none" width="100%" height="100%" requiredFeatures="http://www.w3.org/TR/SVG11/feature#Extensibility"><div xmlns="http://www.w3.org/1999/xhtml" style="display: flex; align-items: unsafe center; justify-content: unsafe center; width: 78px; height: 1px; padding-top: 75px; margin-left: 341px;"><div style="box-sizing: border-box; font-size: 0; text-align: center; "><div style="display: inline-block; font-size: 12px; font-family: Helvetica; color: #000000; line-height: 1.2; pointer-events: all; white-space: normal; word-wrap: normal; ">Either[E, A]</div></div></div></foreignObject><text x="380" y="79" fill="#000000" font-family="Helvetica" font-size="12px" text-anchor="middle">Either[E, A]</text></switch></g></g><switch><g requiredFeatures="http://www.w3.org/TR/SVG11/feature#Extensibility"/><a transform="translate(0,-5)" xlink:href="https://www.diagrams.net/doc/faq/svg-export-text-problems" target="_blank"><text text-anchor="middle" font-size="10px" x="50%" y="100%">Viewer does not support full SVG 1.1</text></a></switch></svg>
